X:1781
T:Eins, zwei, drei, lustig ist die Schäferei - schottisch/schottische/scottish
O:england
B:"Die Sackpfyf schön Macht siss gethön", 43 Volkstänze u. Schäferlieder aus Schwaben, G.Balling, Schwäbischer Albverein, Stuttgart 1997
N:please mail errors to: simon.wascher@chello.at
M:2/4
L:1/16
K:G
dd|d2g2 d2BB|c2e2 c2cc|c2e2 d2c2|c2B2 B2dd|
d2g2 d2BB|c2e2 c2dd|d2d2 e2f2|g2g2g2:|
|:ee|e2g2 e2ee|f2g2 f2ff|f2f2 g2f2|f2e2 e2ee|
e2g2 e2ee|f2g2 f2ff|g2f2 e2d2|c2c2c2:|


